assets/icons/pin-24.svg

<svg width="24" height="24" viewBox="0 0 24 24" fill="none" xmlns="http://www.w3.org/2000/svg">
<path fill-rule="evenodd" clip-rule="evenodd" d="M14.5307 2.30597C14.9387 1.89801 15.6001 1.89801 16.0081 2.30597L21.694 7.9919C22.102 8.39987 22.102 9.06131 21.694 9.46928C21.2861 9.87724 20.6246 9.87724 20.2166 9.46928L19.8724 9.12503L13.7974 16.1277L14.815 17.1453C15.223 17.5532 15.223 18.2147 14.815 18.6227C14.4071 19.0306 13.7456 19.0306 13.3376 18.6227L10.3523 15.6373L3.75287 21.7233C3.34082 22.1033 2.70232 22.0904 2.30598 21.694C1.90963 21.2977 1.89671 20.6592 2.2767 20.2471L8.36265 13.6477L5.37734 10.6624C4.96938 10.2544 4.96938 9.59295 5.37734 9.18498C5.78531 8.77702 6.44675 8.77702 6.85472 9.18498L7.87235 10.2026L14.875 4.1276L14.5307 3.78335C14.1228 3.37538 14.1228 2.71394 14.5307 2.30597ZM16.3561 5.60868L9.35343 11.6837L12.3163 14.6466L18.3913 7.64394L16.3561 5.60868Z" fill="#F2F2F2"/>
</svg>

<svg xmlns="http://www.w3.org/2000/svg" width="24" height="24" viewBox="0 0 24 24"><path fill-rule="evenodd" d="M14.53 2.306a1.045 1.045 0 011.478 0l5.686 5.686a1.045 1.045 0 11-1.477 1.477l-.345-.344-6.075 7.003 1.018 1.017a1.045 1.045 0 11-1.477 1.478l-2.986-2.986-6.6 6.086a1.045 1.045 0 01-1.475-1.476l6.086-6.6-2.986-2.985a1.045 1.045 0 011.478-1.477l1.017 1.018 7.003-6.075-.344-.345a1.045 1.045 0 010-1.477zm1.826 3.303l-7.003 6.075 2.963 2.963 6.075-7.003-2.035-2.035z"/></svg>
